build/img/sprites/MonitorPlayColor.svg

<svg width="24" height="24" viewBox="0 0 24 24" fill="none" xmlns="http://www.w3.org/2000/svg">
<path d="M19.5 3.75H4.5C3.90326 3.75 3.33097 3.98705 2.90901 4.40901C2.48705 4.83097 2.25 5.40326 2.25 6V16.5C2.25 17.0967 2.48705 17.669 2.90901 18.091C3.33097 18.5129 3.90326 18.75 4.5 18.75H19.5C20.0967 18.75 20.669 18.5129 21.091 18.091C21.5129 17.669 21.75 17.0967 21.75 16.5V6C21.75 5.40326 21.5129 4.83097 21.091 4.40901C20.669 3.98705 20.0967 3.75 19.5 3.75ZM20.25 16.5C20.25 16.6989 20.171 16.8897 20.0303 17.0303C19.8897 17.171 19.6989 17.25 19.5 17.25H4.5C4.30109 17.25 4.11032 17.171 3.96967 17.0303C3.82902 16.8897 3.75 16.6989 3.75 16.5V6C3.75 5.80109 3.82902 5.61032 3.96967 5.46967C4.11032 5.32902 4.30109 5.25 4.5 5.25H19.5C19.6989 5.25 19.8897 5.32902 20.0303 5.46967C20.171 5.61032 20.25 5.80109 20.25 6V16.5ZM15.75 21C15.75 21.1989 15.671 21.3897 15.5303 21.5303C15.3897 21.671 15.1989 21.75 15 21.75H9C8.80109 21.75 8.61032 21.671 8.46967 21.5303C8.32902 21.3897 8.25 21.1989 8.25 21C8.25 20.8011 8.32902 20.6103 8.46967 20.4697C8.61032 20.329 8.80109 20.25 9 20.25H15C15.1989 20.25 15.3897 20.329 15.5303 20.4697C15.671 20.6103 15.75 20.8011 15.75 21ZM15.4163 10.6256L10.9163 7.62562C10.8033 7.55025 10.6719 7.50696 10.5363 7.50039C10.4006 7.49382 10.2657 7.52421 10.146 7.58831C10.0263 7.65241 9.9262 7.74782 9.85645 7.86436C9.7867 7.9809 9.74991 8.11419 9.75 8.25V14.25C9.74991 14.3858 9.7867 14.5191 9.85645 14.6356C9.9262 14.7522 10.0263 14.8476 10.146 14.9117C10.2657 14.9758 10.4006 15.0062 10.5363 14.9996C10.6719 14.993 10.8033 14.9498 10.9163 14.8744L15.4163 11.8744C15.5191 11.8059 15.6035 11.7131 15.6618 11.6042C15.7202 11.4952 15.7507 11.3736 15.7507 11.25C15.7507 11.1264 15.7202 11.0048 15.6618 10.8958C15.6035 10.7869 15.5191 10.6941 15.4163 10.6256ZM11.25 12.8484V9.65625L13.6481 11.25L11.25 12.8484Z" fill="#78213A"/>
</svg>

<svg width="24" height="24" viewBox="0 0 24 24" fill="none" xmlns="http://www.w3.org/2000/svg"><path d="M19.5 3.75h-15A2.25 2.25 0 002.25 6v10.5a2.25 2.25 0 002.25 2.25h15a2.25 2.25 0 002.25-2.25V6a2.25 2.25 0 00-2.25-2.25zm.75 12.75a.75.75 0 01-.75.75h-15a.75.75 0 01-.75-.75V6a.75.75 0 01.75-.75h15a.75.75 0 01.75.75v10.5zm-4.5 4.5a.75.75 0 01-.75.75H9a.75.75 0 110-1.5h6a.75.75 0 01.75.75zm-.334-10.374l-4.5-3a.75.75 0 00-1.166.624v6a.75.75 0 001.166.624l4.5-3a.75.75 0 000-1.248zm-4.166 2.222V9.656l2.398 1.594-2.398 1.598z" fill="#78213A"/></svg>
